resources/haticons/SVG/adobelightroomcc.svg

<!-- Generated by IcoMoon.io -->
<svg version="1.1" xmlns="http://www.w3.org/2000/svg" width="24" height="24" viewBox="0 0 24 24">
<title>adobelightroomcc</title>
<path fill="#3df0f0" d="M19.75 0.3h-15.5c-2.35 0-4.25 1.9-4.25 4.25v14.9c0 2.35 1.9 4.25 4.25 4.25h15.5c2.35 0 4.25-1.9 4.25-4.25v-14.9c0-2.35-1.9-4.25-4.25-4.25zM22.99 19.060c0 0.005 0 0.011 0 0.017 0 2-1.62 3.621-3.62 3.623h-14.74c-2 0-3.63-1.63-3.63-3.64v-14.12c0-2.010 1.63-3.64 3.63-3.64h14.73c2.005 0 3.63 1.625 3.63 3.63v0zM6.65 16.63c-0.12 0-0.15-0.050-0.15-0.15v-10.75c0-0.080 0.030-0.13 0.12-0.13h1.58c0.080 0 0.1 0.030 0.1 0.12v9.26h4.12c0.080 0 0.11 0.030 0.090 0.12l-0.25 1.42c-0.020 0.080-0.070 0.12-0.15 0.12h-5.46zM14.15 10.15c0-0.12 0-0.41-0.050-0.97 0-0.080 0.020-0.1 0.080-0.13 0.61-0.25 2.060-0.69 3.68-0.69 0.080 0 0.12 0.020 0.12 0.1v1.44c0 0.080-0.030 0.1-0.12 0.1-0.63-0.030-1.56 0.050-1.91 0.2v6.31c0 0.080-0.030 0.12-0.12 0.12h-1.57c-0.080 0-0.12-0.030-0.12-0.12v-6.36z"></path>
</svg>

<svg xmlns="http://www.w3.org/2000/svg" width="24" height="24"><path fill="#3df0f0" d="M19.75.3H4.25C1.9.3 0 2.2 0 4.55v14.9c0 2.35 1.9 4.25 4.25 4.25h15.5c2.35 0 4.25-1.9 4.25-4.25V4.55C24 2.2 22.1.3 19.75.3zm3.24 18.76v.017c0 2-1.62 3.621-3.62 3.623H4.63c-2 0-3.63-1.63-3.63-3.64V4.94C1 2.93 2.63 1.3 4.63 1.3h14.73a3.63 3.63 0 0 1 3.63 3.63zM6.65 16.63c-.12 0-.15-.05-.15-.15V5.73c0-.08.03-.13.12-.13H8.2c.08 0 .1.03.1.12v9.26h4.12c.08 0 .11.03.09.12l-.25 1.42c-.02.08-.07.12-.15.12H6.65zm7.5-6.48c0-.12 0-.41-.05-.97 0-.08.02-.1.08-.13.61-.25 2.06-.69 3.68-.69.08 0 .12.02.12.1V9.9c0 .08-.03.1-.12.1-.63-.03-1.56.05-1.91.2v6.31c0 .08-.03.12-.12.12h-1.57c-.08 0-.12-.03-.12-.12v-6.36z"/></svg>
